assets/svg/cv.svg

<svg width="56" height="76" viewBox="0 0 56 76" fill="none" xmlns="http://www.w3.org/2000/svg">
<rect x="2.5" y="2.5" width="51" height="71" rx="12.5" stroke="#3D4059" stroke-width="5"/>
<rect x="11.6924" y="58.9648" width="32" height="3.19328" rx="1.59664" fill="#3D4059"/>
<rect x="11.6924" y="49.3848" width="32" height="3.19328" rx="1.59664" fill="#3D4059"/>
<rect x="11.6924" y="39.8062" width="32" height="3.19328" rx="1.59664" fill="#3D4059"/>
<rect x="11.6924" y="30.2266" width="32" height="3.19328" rx="1.59664" fill="#3D4059"/>
<path d="M28.9837 23.0346C28.2037 23.0346 27.5187 22.8846 26.9287 22.5846C26.3387 22.2746 25.8837 21.8446 25.5637 21.2946C25.2437 20.7446 25.0837 20.1096 25.0837 19.3896V15.9246C25.0837 15.2046 25.2437 14.5696 25.5637 14.0195C25.8837 13.4696 26.3387 13.0446 26.9287 12.7446C27.5187 12.4446 28.2037 12.2946 28.9837 12.2946C29.7537 12.2946 30.4287 12.4396 31.0087 12.7296C31.5987 13.0096 32.0537 13.4146 32.3737 13.9446C32.7037 14.4646 32.8687 15.0696 32.8687 15.7596C32.8687 15.8496 32.8087 15.9046 32.6887 15.9246L30.9337 16.0296H30.9037C30.8037 16.0296 30.7537 15.9746 30.7537 15.8646C30.7537 15.3346 30.5887 14.9096 30.2587 14.5896C29.9387 14.2696 29.5137 14.1096 28.9837 14.1096C28.4437 14.1096 28.0087 14.2696 27.6787 14.5896C27.3587 14.9096 27.1987 15.3346 27.1987 15.8646V19.4796C27.1987 19.9996 27.3587 20.4196 27.6787 20.7396C28.0087 21.0596 28.4437 21.2196 28.9837 21.2196C29.5137 21.2196 29.9387 21.0596 30.2587 20.7396C30.5887 20.4196 30.7537 19.9996 30.7537 19.4796C30.7537 19.3696 30.8137 19.3146 30.9337 19.3146L32.6887 19.3896C32.7387 19.3896 32.7787 19.4046 32.8087 19.4346C32.8487 19.4646 32.8687 19.4996 32.8687 19.5396C32.8687 20.2296 32.7037 20.8396 32.3737 21.3696C32.0537 21.8996 31.5987 22.3096 31.0087 22.5996C30.4287 22.8896 29.7537 23.0346 28.9837 23.0346ZM36.9899 22.9146C36.8899 22.9146 36.8249 22.8646 36.7949 22.7646L33.7049 12.6246L33.6899 12.5645C33.6899 12.4646 33.7449 12.4146 33.8549 12.4146H35.7449C35.8549 12.4146 35.9249 12.4646 35.9549 12.5645L37.9499 19.8846C37.9599 19.9146 37.9749 19.9296 37.9949 19.9296C38.0149 19.9296 38.0299 19.9146 38.0399 19.8846L40.0049 12.5645C40.0349 12.4646 40.1049 12.4146 40.2149 12.4146H42.0599C42.1199 12.4146 42.1649 12.4346 42.1949 12.4746C42.2249 12.5146 42.2299 12.5646 42.2099 12.6246L39.0749 22.7646C39.0449 22.8646 38.9799 22.9146 38.8799 22.9146H36.9899Z" fill="#3D4059"/>
</svg>

<svg fill="none" height="76" viewBox="0 0 56 76" width="56" xmlns="http://www.w3.org/2000/svg"><rect height="71" rx="12.5" stroke="#3d4059" stroke-width="5" width="51" x="2.5" y="2.5"/><g fill="#3d4059"><rect height="3.19328" rx="1.59664" width="32" x="11.6924" y="58.9648"/><rect height="3.19328" rx="1.59664" width="32" x="11.6924" y="49.3848"/><rect height="3.19328" rx="1.59664" width="32" x="11.6924" y="39.8062"/><rect height="3.19328" rx="1.59664" width="32" x="11.6924" y="30.2266"/><path d="m28.9837 23.0346c-.78 0-1.465-.15-2.055-.45-.59-.31-1.045-.74-1.365-1.29s-.48-1.185-.48-1.905v-3.465c0-.72.16-1.355.48-1.9051.32-.5499.775-.9749 1.365-1.2749s1.275-.45 2.055-.45c.77 0 1.445.145 2.025.435.59.28 1.045.685 1.365 1.215.33.52.495 1.125.495 1.815 0 .09-.06.145-.18.165l-1.755.105h-.03c-.1 0-.15-.055-.15-.165 0-.53-.165-.955-.495-1.275-.32-.32-.745-.48-1.275-.48-.54 0-.975.16-1.305.48-.32.32-.48.745-.48 1.275v3.615c0 .52.16.94.48 1.26.33.32.765.48 1.305.48.53 0 .955-.16 1.275-.48.33-.32.495-.74.495-1.26 0-.11.06-.165.18-.165l1.755.075c.05 0 .09.015.12.045.04.03.06.065.06.105 0 .69-.165 1.3-.495 1.83-.32.53-.775.94-1.365 1.23-.58.29-1.255.435-2.025.435zm8.0062-.12c-.1 0-.165-.05-.195-.15l-3.09-10.14-.015-.0601c0-.0999.055-.1499.165-.1499h1.89c.11 0 .18.05.21.1499l1.995 7.3201c.01.03.025.045.045.045s.035-.015.045-.045l1.965-7.3201c.03-.0999.1-.1499.21-.1499h1.845c.06 0 .105.02.135.06s.035.09.015.15l-3.135 10.14c-.03.1-.095.15-.195.15z"/></g></svg>
